app/_includes/svgs/social/social-email.min.svg

<svg xmlns="http://www.w3.org/2000/svg" viewBox="0 0 103 103" enable-background="new 0 0 103 103"><circle fill="#fff" stroke="#373737" stroke-width="3" stroke-miterlimit="10" cx="51.5" cy="51.5" r="50"/><path fill="#373737" d="M74.5 40.3c0-1-.4-1.9-1-2.5-.7-.7-1.7-1.2-2.8-1.2h-38.3c-1.1 0-2.1.5-2.8 1.2-.6.7-1 1.6-1 2.5v22.4c0 1 .4 1.9 1 2.6.7.7 1.7 1.2 2.8 1.2h38.3c1.1 0 2.1-.5 2.8-1.2.6-.7 1-1.6 1-2.6v-22.4zm-15.1 10l13.3-10.9c.1.3.2.6.2.9v22.4c0 .3-.1.6-.2.8l-13.3-13.2zm11.2-12.2c.3 0 .7.1.9.2l-20 16.5-20.1-16.5c.3-.1.6-.2.9-.2h38.3zm-40.3 25.4c-.1-.3-.2-.5-.2-.8v-22.4c0-.3.1-.6.2-.9l13.3 10.9-13.3 13.2zm2.1 1.4c-.4 0-.7-.1-1-.2l13.4-13.4 6.2 5.1c.1.1.3.2.5.2s.4-.1.5-.2l6.2-5.1 13.4 13.4c-.3.2-.7.2-1 .2h-38.2z"/></svg>

<svg xmlns="http://www.w3.org/2000/svg" viewBox="0 0 103 103" enable-background="new 0 0 103 103"><circle fill="#fff" stroke="#373737" stroke-width="3" stroke-miterlimit="10" cx="51.5" cy="51.5" r="50"/><path fill="#373737" d="M74.5,40.3c0-1-0.4-1.9-1-2.5c0,0,0,0,0,0c0,0,0,0,0,0c-0.7-0.7-1.7-1.2-2.8-1.2H32.4	c-1.1,0-2.1,0.5-2.8,1.2c0,0,0,0,0,0c0,0,0,0,0,0c-0.6,0.7-1,1.6-1,2.5v22.4c0,1,0.4,1.9,1,2.6c0,0,0,0,0,0c0,0,0,0,0,0	c0.7,0.7,1.7,1.2,2.8,1.2h38.3c1.1,0,2.1-0.5,2.8-1.2c0,0,0,0,0,0c0,0,0,0,0,0c0.6-0.7,1-1.6,1-2.6L74.5,40.3L74.5,40.3z M59.4,50.3	l13.3-10.9c0.1,0.3,0.2,0.6,0.2,0.9v22.4c0,0.3-0.1,0.6-0.2,0.8L59.4,50.3z M70.6,38.1c0.3,0,0.7,0.1,0.9,0.2L51.5,54.8L31.4,38.3	c0.3-0.1,0.6-0.2,0.9-0.2H70.6z M30.3,63.5c-0.1-0.3-0.2-0.5-0.2-0.8V40.3c0-0.3,0.1-0.6,0.2-0.9l13.3,10.9L30.3,63.5z M32.4,64.9	c-0.4,0-0.7-0.1-1-0.2l13.4-13.4l6.2,5.1c0.1,0.1,0.3,0.2,0.5,0.2c0.2,0,0.4-0.1,0.5-0.2l6.2-5.1l13.4,13.4c-0.3,0.2-0.7,0.2-1,0.2	H32.4z"/></svg>
